packages/sources/icons/src/vitamix/ie-line.svg

<svg width="16" height="16" viewBox="0 0 16 16" xmlns="http://www.w3.org/2000/svg"><path d="M12.106 6.66668C11.8304 5.8862 11.3195 5.21039 10.6438 4.73239C9.96803 4.25438 9.16069 3.99769 8.33297 3.99769C7.50526 3.99769 6.69791 4.25438 6.02218 4.73239C5.34645 5.21039 4.83558 5.8862 4.55997 6.66668H12.1066H12.106ZM4.38864 8.66668C4.52574 9.4745 4.90753 10.2208 5.48243 10.8046C6.05732 11.3884 6.79759 11.7817 7.60319 11.9313C8.4088 12.0808 9.2409 11.9795 9.98704 11.6409C10.7332 11.3023 11.3574 10.7428 11.7753 10.038H13.978C13.6931 10.8269 13.2461 11.5472 12.6658 12.1527C12.0855 12.7582 11.3847 13.2353 10.6086 13.5534C9.83256 13.8714 8.99847 14.0232 8.16012 13.9991C7.32178 13.975 6.4978 13.7755 5.74131 13.4133C3.91197 14.4073 2.33264 14.6133 1.45997 13.7407C0.563972 12.8473 1.04131 10.5067 2.33531 8.15868C2.81278 7.29378 3.37057 6.47573 4.00131 5.71534C4.24064 5.42668 4.49131 5.14734 4.75131 4.88068C4.56797 4.91734 3.49797 5.44801 2.47664 6.69001C2.79201 5.28285 3.60343 4.03625 4.76247 3.17823C5.92151 2.32021 7.35071 1.90812 8.78864 2.01734C10.852 1.08268 12.7713 0.866678 13.5833 1.67734C14.3333 2.42601 14.2913 3.67401 13.6666 5.17201C13.66 5.18601 13.6546 5.20068 13.6486 5.21468C14.0997 6.07374 14.3347 7.02974 14.3333 8.00001C14.3333 8.22534 14.3206 8.44801 14.2966 8.66668H4.38864ZM5.33664 13.1993C4.10931 12.4902 3.17159 11.3707 2.68864 10.038C1.91464 11.5593 1.71531 12.8313 2.37597 13.4913C2.91797 14.0327 4.00131 13.9073 5.33464 13.2007L5.33664 13.1993ZM13.448 4.86134C13.4513 4.85378 13.4546 4.84623 13.458 4.83868C13.958 3.75734 14 2.84268 13.5413 2.30134C12.962 1.72268 11.848 1.80134 10.5266 2.41334C11.7398 2.89149 12.765 3.75055 13.448 4.86134Z"/></svg>

<svg width="16" height="16" xmlns="http://www.w3.org/2000/svg"><path d="M12.106 6.667a4.001 4.001 0 0 0-7.546 0h7.547-.001Zm-7.717 2a4.001 4.001 0 0 0 7.386 1.371h2.203a6.003 6.003 0 0 1-8.237 3.375c-1.829.994-3.408 1.2-4.281.328-.896-.894-.419-3.234.875-5.582a15.749 15.749 0 0 1 1.666-2.444c.24-.288.49-.568.75-.834-.183.036-1.253.567-2.274 1.809a6.003 6.003 0 0 1 6.312-4.673c2.063-.934 3.982-1.15 4.794-.34.75.749.708 1.997.084 3.495-.007.014-.012.029-.018.043a5.973 5.973 0 0 1 .648 3.452H4.389Zm.948 4.532a6.02 6.02 0 0 1-2.648-3.161c-.774 1.521-.974 2.793-.313 3.453.542.542 1.625.416 2.959-.29l.002-.002Zm8.111-8.338a2.14 2.14 0 0 1 .01-.022c.5-1.082.542-1.996.083-2.538-.579-.578-1.693-.5-3.014.112a6.021 6.021 0 0 1 2.921 2.448Z"/></svg>
